assets/icons/camera/web.svg

<?xml version="1.0" encoding="UTF-8" standalone="no"?>
<svg
   viewBox="0 0 24 24"
   height="24"
   width="24"
   version="1.1"
   id="svg4"
   sodipodi:docname="web.svg"
   inkscape:version="1.2 (1:1.2.1+202207142221+cd75a1ee6d)"
   xmlns:inkscape="http://www.inkscape.org/namespaces/inkscape"
   xmlns:sodipodi="http://sodipodi.sourceforge.net/DTD/sodipodi-0.dtd"
   xmlns="http://www.w3.org/2000/svg"
   xmlns:svg="http://www.w3.org/2000/svg">
  <defs
     id="defs8" />
  <sodipodi:namedview
     id="namedview6"
     pagecolor="#ffffff"
     bordercolor="#666666"
     borderopacity="1.0"
     inkscape:pageshadow="2"
     inkscape:pageopacity="0.0"
     inkscape:pagecheckerboard="0"
     showgrid="true"
     inkscape:zoom="22.627417"
     inkscape:cx="-0.61871843"
     inkscape:cy="13.037281"
     inkscape:window-width="1920"
     inkscape:window-height="1043"
     inkscape:window-x="0"
     inkscape:window-y="0"
     inkscape:window-maximized="1"
     inkscape:current-layer="svg4"
     inkscape:snap-bbox="true"
     inkscape:bbox-paths="true"
     inkscape:bbox-nodes="true"
     inkscape:snap-bbox-edge-midpoints="true"
     inkscape:snap-bbox-midpoints="true"
     inkscape:object-paths="true"
     inkscape:snap-intersection-paths="true"
     inkscape:snap-smooth-nodes="true"
     inkscape:snap-midpoints="true"
     inkscape:showpageshadow="2"
     inkscape:deskcolor="#d1d1d1">
    <inkscape:grid
       type="xygrid"
       id="grid845" />
    <inkscape:grid
       type="xygrid"
       id="grid1396"
       dotted="true"
       spacingx="0.5"
       spacingy="0.5"
       empspacing="10" />
  </sodipodi:namedview>
  <path
     id="path562"
     style="opacity:1;fill:#808080;fill-rule:evenodd;stroke:none;stroke-width:2;stroke-linejoin:round"
     d="M 12 3 A 8 8 0 0 0 4 11 A 8 8 0 0 0 10 18.730469 L 10 20 L 14 20 L 14 18.730469 A 8 8 0 0 0 20 11 A 8 8 0 0 0 12 3 z M 12 4 A 7 7 0 0 1 19 11 A 7 7 0 0 1 12 18 A 7 7 0 0 1 5 11 A 7 7 0 0 1 12 4 z " />
  <path
     id="rect1420"
     style="fill:#808080;fill-opacity:1;fill-rule:evenodd;stroke-width:0.5;stroke-linecap:square"
     d="m 12,6 c -2.7614237,0 -5,2.2385763 -5,5 0,2.761424 2.2385763,5 5,5 2.761424,0 5,-2.238576 5,-5 0,-2.7614237 -2.238576,-5 -5,-5 z m 0,1 c 2.209139,0 4,1.790861 4,4 0,2.209139 -1.790861,4 -4,4 -2.209139,0 -4,-1.790861 -4,-4 0,-2.209139 1.790861,-4 4,-4 z m 0.04883,1.0019531 c 0.532374,0.026026 0.950767,0.4650372 0.951172,0.9980469 0,0.5522847 -0.447715,1 -1,1 -0.552285,0 -1,-0.4477153 -1,-1 -5.07e-4,-0.4960959 0.362771,-0.9175645 0.853516,-0.9902344 -1.595616,0.078 -2.8502211,1.3927162 -2.853516,2.9902344 0,1.656854 1.343146,3 3,3 1.656854,0 3,-1.343146 3,-3 -8.49e-4,-1.6372113 -1.314177,-2.9713999 -2.951172,-2.9980469 z m -9.048828,12.9980469 v 1 h 18.5 v -1 z"
     sodipodi:nodetypes="ssssssssssccscccsccccccc" />
</svg>

<svg height="24" width="24" xmlns="http://www.w3.org/2000/svg"><path style="opacity:1;fill:gray;stroke:none;stroke-width:2;stroke-linejoin:round" d="M12 3a8 8 0 0 0-8 8 8 8 0 0 0 6 7.73V20h4v-1.27A8 8 0 0 0 20 11a8 8 0 0 0-8-8zm0 1a7 7 0 0 1 7 7 7 7 0 0 1-7 7 7 7 0 0 1-7-7 7 7 0 0 1 7-7z"/><path style="fill:gray;fill-opacity:1;stroke-width:.5;stroke-linecap:square" d="M12 6a5 5 0 1 0 0 10 5 5 0 0 0 0-10zm0 1a4 4 0 1 1 0 8 4 4 0 0 1 0-8zm.049 1.002a1 1 0 1 1-.195.008A3 3 0 0 0 9 11a3 3 0 1 0 3.049-2.998zM3 21v1h18.5v-1z"/></svg>
